tools/download-figma-icons/icons/outlined-medium/existing-customer.svg

<svg width="24" height="24" viewBox="0 0 24 24" fill="none" xmlns="http://www.w3.org/2000/svg">
<path fill-rule="evenodd" clip-rule="evenodd" d="M3.02857 18.0075C3.45607 18.165 5.46607 18.825 9.74932 18.825C10.0268 18.825 10.2961 18.825 10.5518 18.8175C10.5218 18.5557 10.4993 18.2782 10.4993 18C10.4993 15.225 12.3901 12.885 14.9543 12.2025C13.9943 11.1532 12.5393 10.5 10.9043 10.5H8.59432C5.83357 10.5 3.57682 12.3682 3.33607 14.8358L3.02857 18.0075ZM9.74935 1.5C7.6786 1.5 5.9986 3.1875 5.9986 5.25C5.9986 7.32 7.6786 9 9.74935 9C11.8119 9 13.4994 7.32 13.4994 5.25C13.4994 3.1875 11.8119 1.5 9.74935 1.5ZM12.5843 20.22C13.3576 21.5775 14.8276 22.5 16.4993 22.5C18.9826 22.5 21.0001 20.4825 21.0001 18C21.0001 15.8407 19.4776 14.0325 17.4451 13.5975C17.1376 13.5375 16.8226 13.5 16.4993 13.5C16.2743 13.5 16.0568 13.515 15.8393 13.5533C13.6718 13.8682 11.9993 15.7432 11.9993 18C11.9993 18.2625 12.0218 18.51 12.0668 18.7575C12.1493 19.2825 12.3293 19.7782 12.5843 20.22ZM13.0568 9.3225C14.5943 9.7875 15.8851 10.7408 16.7093 12.0075C19.9201 12.1132 22.5001 14.76 22.5001 18C22.5001 21.3083 19.8076 24 16.4993 24C14.0093 24 11.8718 22.4775 10.9643 20.31C10.5818 20.3175 10.1768 20.325 9.74933 20.325C5.05358 20.325 2.87108 19.56 2.39858 19.3725C1.83608 19.2383 1.44608 18.7275 1.50608 18.1575L1.84358 14.6925C2.09108 12.135 3.94433 10.0808 6.44183 9.3225C5.25683 8.36325 4.49858 6.89325 4.49858 5.25C4.49858 2.355 6.85433 0 9.74933 0C12.6443 0 14.9993 2.355 14.9993 5.25C14.9993 6.89325 14.2418 8.36325 13.0568 9.3225ZM17.8201 16.3653L18.2176 15.9678C18.5101 15.6753 18.9893 15.6753 19.2826 15.9678C19.5751 16.2603 19.5751 16.7403 19.2826 17.0328L17.9918 18.3228L16.8593 19.4553L16.2818 20.0328C16.1326 20.1753 15.9451 20.2503 15.7493 20.2503C15.5543 20.2503 15.3668 20.1753 15.2168 20.0328L15.0893 19.9053L13.7693 18.5853L13.7168 18.5328C13.4243 18.2403 13.4243 17.7603 13.7168 17.4678C14.0093 17.1753 14.4893 17.1753 14.7818 17.4678L15.5768 18.2628L15.7493 18.4428L16.0568 18.1353L16.4476 17.7453L17.8201 16.3653Z" fill="black"/>
</svg>

<svg xmlns="http://www.w3.org/2000/svg" width="24" height="24" fill="none" viewBox="0 0 24 24"><path fill="currentColor" fill-rule="evenodd" d="M3.029 18.008c.427.157 2.437.817 6.72.817.278 0 .547 0 .803-.008a7 7 0 0 1-.053-.817 6.006 6.006 0 0 1 4.455-5.797c-.96-1.05-2.415-1.703-4.05-1.703h-2.31c-2.76 0-5.017 1.868-5.258 4.336zM9.749 1.5A3.756 3.756 0 0 0 6 5.25C6 7.32 7.68 9 9.75 9c2.063 0 3.75-1.68 3.75-3.75A3.76 3.76 0 0 0 9.75 1.5m2.835 18.72A4.51 4.51 0 0 0 16.5 22.5c2.483 0 4.5-2.017 4.5-4.5a4.505 4.505 0 0 0-3.555-4.402 5 5 0 0 0-.946-.098c-.225 0-.442.015-.66.053A4.5 4.5 0 0 0 12 18c0 .262.023.51.068.758a4.3 4.3 0 0 0 .517 1.462m.473-10.897c1.537.464 2.828 1.418 3.652 2.685A6 6 0 0 1 22.5 18c0 3.308-2.692 6-6 6a6 6 0 0 1-5.536-3.69q-.573.013-1.215.015c-4.695 0-6.878-.765-7.35-.953-.563-.134-.953-.645-.893-1.215l.338-3.464c.247-2.558 2.1-4.612 4.598-5.37A5.23 5.23 0 0 1 4.499 5.25 5.256 5.256 0 0 1 9.749 0 5.256 5.256 0 0 1 15 5.25a5.23 5.23 0 0 1-1.942 4.073m4.763 7.042.398-.397a.756.756 0 0 1 1.065 0 .756.756 0 0 1 0 1.065l-1.291 1.29-1.133 1.132-.577.578a.77.77 0 0 1-.533.217.77.77 0 0 1-.532-.217l-.128-.128-1.32-1.32-.052-.052a.756.756 0 0 1 0-1.065.756.756 0 0 1 1.065 0l.795.795.172.18.308-.308.39-.39z" clip-rule="evenodd"/></svg>
